;FLAVOR:Marlin
;TIME:17730
;Filament used: 12.3757m
;Layer height: 0.2
;MINX:37.648
;MINY:37.627
;MINZ:0.2
;MAXX:142.375
;MAXY:142.375
;MAXZ:15
;Generated with Cura_SteamEngine 5.2.2
M140 S60
M105
M190 S60
M104 S250
M105
M109 S250
M82 ;absolute extrusion mode
G28 ; home all axes
 M117 Purge extruder
 G92 E0 ; reset extruder
 G1 Z1.0 F3000 ; move z up little to prevent scratching of surface
 G1 X2 Y20 Z0.3 F5000.0 ; move to start-line position
 G1 X2 Y175.0 Z0.3 F1500.0 E15 ; draw 1st line
 G1 X2 Y175.0 Z0.4 F5000.0 ; move to side a little
 G1 X2 Y20 Z0.4 F1500.0 E30 ; draw 2nd line
 G92 E0 ; reset extruder
 G1 Z1.0 F3000 ; move z up little to prevent scratching of surface
G92 E0
G92 E0
G1 F2400 E-2
;LAYER_COUNT:75
;LAYER:0
M107
G0 F6000 X39.939 Y39.759 Z0.2
;TYPE:SKIRT
G1 F2400 E0
G1 F1200 X40.476 Y39.286 E0.02975
G1 X40.861 Y39.005 E0.04957
G1 X41.225 Y38.76 E0.06781
G1 X41.84 Y38.394 E0.09756
G1 X42.492 Y38.099 E0.12732
G1 X43.172 Y37.879 E0.15703
G1 X43.873 Y37.736 E0.18677
G1 X44.667 Y37.67 E0.2199
G1 X45.924 Y37.644 E0.27217
G1 X133.17 Y37.643 E3.89944
G1 X135.047 Y37.627 E3.97748
G1 X135.762 Y37.661 E4.00724
G1 X136.468 Y37.775 E4.03697
G1 X137.473 Y38.083 E4.08067
G1 X137.661 Y38.158 E4.08909
G1 X138.598 Y38.623 E4.13257
G1 X138.969 Y38.847 E4.15059
G1 X139.56 Y39.251 E4.18036
G1 X140.102 Y39.717 E4.21007
G1 X140.588 Y40.242 E4.23982
G1 X141.14 Y41.018 E4.27941
G1 X141.335 Y41.341 E4.2951
G1 X141.691 Y42.019 E4.32693
G1 X141.81 Y42.283 E4.33897
G1 X142.067 Y42.95 E4.36869
G1 X142.248 Y43.642 E4.39843
G1 X142.35 Y44.35 E4.42817
G1 X142.375 Y44.967 E4.45384
G1 X142.364 Y46.287 E4.50872
G1 X142.372 Y46.45 E4.51551
G1 X142.357 Y47.289 E4.55039
G1 X142.357 Y133.225 E8.1232
G1 X142.373 Y135.092 E8.20082
G1 X142.339 Y135.806 E8.23054
G1 X142.225 Y136.512 E8.26027
G1 X142.034 Y137.201 E8.29
G1 X141.766 Y137.865 E8.31977
G1 X141.506 Y138.362 E8.34309
G1 X141.206 Y138.878 E8.3679
G1 X140.812 Y139.475 E8.39764
G1 X140.355 Y140.025 E8.42737
G1 X139.838 Y140.52 E8.45713
G1 X138.991 Y141.134 E8.50062
G1 X138.666 Y141.331 E8.51642
G1 X137.966 Y141.698 E8.54928
G1 X137.705 Y141.815 E8.56117
G1 X137.037 Y142.071 E8.59091
G1 X136.345 Y142.25 E8.62063
G1 X135.637 Y142.351 E8.65036
G1 X135.033 Y142.375 E8.6755
G1 X133.713 Y142.364 E8.73038
G1 X133.55 Y142.372 E8.73716
G1 X132.711 Y142.357 E8.77205
G1 X45.615 Y142.356 E12.39308
G1 X44.715 Y142.343 E12.4305
G1 X44.001 Y142.293 E12.46026
G1 X43.298 Y142.163 E12.48998
G1 X42.613 Y141.956 E12.51973
G1 X41.956 Y141.674 E12.54946
G1 X41.072 Y141.141 E12.59237
G1 X40.681 Y140.86 E12.61239
G1 X40.124 Y140.411 E12.64214
G1 X39.46 Y139.713 E12.68219
G1 X39.156 Y139.341 E12.70216
G1 X38.735 Y138.763 E12.73189
G1 X38.382 Y138.141 E12.76162
G1 X38.099 Y137.484 E12.79137
G1 X37.887 Y136.778 E12.82201
G1 X37.833 Y136.552 E12.83167
G1 X37.706 Y135.848 E12.86141
G1 X37.66 Y135.238 E12.88685
G1 X37.648 Y134.695 E12.90943
G1 X37.65 Y45.546 E16.61581
G1 X37.66 Y44.857 E16.64446
G1 X37.71 Y44.144 E16.67418
G1 X37.801 Y43.607 E16.69682
G1 X37.851 Y43.374 E16.70673
G1 X38.04 Y42.684 E16.73647
G1 X38.305 Y42.02 E16.7662
G1 X38.642 Y41.389 E16.79594
G1 X39.133 Y40.692 E16.83138
G1 X39.459 Y40.289 E16.85293
G1 X39.939 Y39.759 E16.88266
G0 F6000 X40.236 Y40.028
G1 F1200 X40.758 Y39.573 E16.91145
G1 X41.085 Y39.336 E16.92824
G1 X41.449 Y39.091 E16.94648
G1 X42.045 Y38.739 E16.97526
G1 X42.677 Y38.457 E17.00403
G1 X43.338 Y38.25 E17.03283
G1 X44.018 Y38.12 E17.06161
G1 X44.675 Y38.07 E17.08901
G1 X45.932 Y38.044 E17.14128
G1 X133.174 Y38.043 E20.76838
G1 X135.051 Y38.027 E20.84642
G1 X135.743 Y38.061 E20.87522
G1 X136.426 Y38.175 E20.90401
G1 X137.325 Y38.454 E20.94315
G1 X137.513 Y38.529 E20.95156
G1 X138.391 Y38.966 E20.99234
G1 X138.762 Y39.19 E21.01035
G1 X139.333 Y39.581 E21.03913
G1 X139.856 Y40.036 E21.06795
G1 X140.322 Y40.548 E21.09673
G1 X140.798 Y41.225 E21.13114
G1 X140.993 Y41.548 E21.14682
G1 X141.326 Y42.183 E21.17663
G1 X141.445 Y42.447 E21.18867
G1 X141.693 Y43.094 E21.21748
G1 X141.864 Y43.765 E21.24627
G1 X141.957 Y44.451 E21.27505
G1 X141.975 Y44.964 E21.29639
G1 X141.965 Y46.158 E21.34603
G1 X141.972 Y46.443 E21.35789
G1 X141.957 Y47.282 E21.39277
G1 X141.957 Y133.225 E24.96587
G1 X141.973 Y135.095 E25.04362
G1 X141.939 Y135.787 E25.07242
G1 X141.825 Y136.47 E25.10121
G1 X141.633 Y137.135 E25.12999
G1 X141.366 Y137.774 E25.15878
G1 X141.16 Y138.161 E25.17701
G1 X140.86 Y138.677 E25.20182
G1 X140.478 Y139.254 E25.23059
G1 X140.032 Y139.784 E25.25939
G1 X139.528 Y140.259 E25.28818
G1 X138.783 Y140.792 E25.32627
G1 X138.458 Y140.989 E25.34207
G1 X137.802 Y141.333 E25.37286
G1 X137.541 Y141.45 E25.38476
G1 X136.894 Y141.696 E25.41353
G1 X136.223 Y141.867 E25.44232
G1 X135.536 Y141.958 E25.47113
G1 X135.036 Y141.975 E25.49193
G1 X133.842 Y141.965 E25.54158
G1 X133.557 Y141.972 E25.55343
G1 X132.718 Y141.957 E25.58832
G1 X45.62 Y141.956 E29.20943
G1 X44.72 Y141.943 E29.24685
G1 X44.03 Y141.893 E29.27561
G1 X43.349 Y141.764 E29.30443
G1 X42.688 Y141.557 E29.33323
G1 X42.056 Y141.276 E29.36198
G1 X41.305 Y140.816 E29.3986
G1 X40.914 Y140.535 E29.41861
G1 X40.376 Y140.099 E29.44741
G1 X39.77 Y139.46 E29.48402
G1 X39.466 Y139.088 E29.50399
G1 X39.059 Y138.527 E29.53281
G1 X38.72 Y137.923 E29.5616
G1 X38.453 Y137.284 E29.5904
G1 X38.276 Y136.685 E29.61636
G1 X38.222 Y136.459 E29.62602
G1 X38.1 Y135.778 E29.65479
G1 X38.06 Y135.227 E29.67776
G1 X38.048 Y134.695 E29.69988
G1 X38.05 Y45.552 E33.40602
G1 X38.06 Y44.863 E33.43466
G1 X38.11 Y44.172 E33.46347
G1 X38.193 Y43.691 E33.48376
G1 X38.243 Y43.458 E33.49367
G1 X38.427 Y42.791 E33.52243
G1 X38.687 Y42.149 E33.55123
G1 X39.019 Y41.541 E33.58003
G1 X39.444 Y40.943 E33.61053
G1 X39.77 Y40.54 E33.63208
G1 X40.236 Y40.028 E33.66087
G0 F6000 X40.532 Y40.298
G1 F1200 X41.308 Y39.668 E33.70242
G1 X41.672 Y39.423 E33.72066
G1 X42.248 Y39.084 E33.74845
G1 X42.861 Y38.815 E33.77628
G1 X43.502 Y38.621 E33.80413
G1 X44.161 Y38.506 E33.83194
G1 X44.683 Y38.47 E33.85369
G1 X45.94 Y38.444 E33.90596
G1 X133.177 Y38.443 E37.53286
G1 X135.054 Y38.427 E37.6109
G1 X135.722 Y38.461 E37.6387
G1 X136.382 Y38.575 E37.66655
G1 X137.177 Y38.826 E37.70121
G1 X137.365 Y38.901 E37.70963
G1 X138.184 Y39.308 E37.74765
G1 X138.555 Y39.532 E37.76567
G1 X139.107 Y39.911 E37.7935
G1 X139.608 Y40.354 E37.82131
G1 X140.054 Y40.853 E37.84913
G1 X140.455 Y41.432 E37.87841
G1 X140.65 Y41.755 E37.8941
G1 X140.961 Y42.348 E37.92194
G1 X141.08 Y42.612 E37.93398
G1 X141.318 Y43.237 E37.96178
G1 X141.48 Y43.886 E37.98959
G1 X141.563 Y44.55 E38.01742
G1 X141.575 Y44.96 E38.03447
G1 X141.564 Y46.296 E38.09001
G1 X141.572 Y46.436 E38.09584
G1 X141.557 Y47.275 E38.13073
G1 X141.557 Y133.225 E41.70412
G1 X141.573 Y135.098 E41.78199
G1 X141.538 Y135.766 E41.8098
G1 X141.425 Y136.426 E41.83764
G1 X141.233 Y137.067 E41.86546
G1 X140.814 Y137.96 E41.90647
G1 X140.514 Y138.476 E41.93128
G1 X140.144 Y139.033 E41.95909
G1 X139.71 Y139.542 E41.9869
G1 X139.218 Y139.996 E42.01473
G1 X138.576 Y140.45 E42.04742
G1 X138.251 Y140.647 E42.06322
G1 X137.639 Y140.968 E42.09195
G1 X137.378 Y141.085 E42.10384
G1 X136.752 Y141.322 E42.13167
G1 X136.102 Y141.482 E42.1595
G1 X135.438 Y141.564 E42.18732
G1 X135.04 Y141.575 E42.20387
G1 X133.704 Y141.564 E42.25942
G1 X133.564 Y141.572 E42.26525
G1 X132.725 Y141.557 E42.30013
G1 X45.626 Y141.556 E45.92129
G1 X44.726 Y141.543 E45.95871
G1 X44.059 Y141.494 E45.98652
G1 X43.402 Y141.365 E46.01435
G1 X42.766 Y141.159 E46.04215
G1 X42.159 Y140.878 E46.06996
G1 X41.539 Y140.491 E46.10034
G1 X41.148 Y140.21 E46.12036
G1 X40.629 Y139.788 E46.14817
G1 X40.08 Y139.207 E46.1814
G1 X39.776 Y138.835 E46.20138
G1 X39.384 Y138.292 E46.22922
G1 X39.06 Y137.707 E46.25702
G1 X38.808 Y137.087 E46.28485
G1 X38.665 Y136.592 E46.30627
G1 X38.611 Y136.366 E46.31593
G1 X38.495 Y135.708 E46.34371
G1 X38.46 Y135.216 E46.36422
G1 X38.448 Y134.695 E46.38588
G1 X38.45 Y45.558 E50.09177
G1 X38.46 Y44.869 E50.12042
G1 X38.509 Y44.202 E50.14822
G1 X38.584 Y43.775 E50.16625
G1 X38.634 Y43.542 E50.17615
G1 X38.813 Y42.897 E50.20398
G1 X39.068 Y42.279 E50.23178
G1 X39.394 Y41.695 E50.25958
G1 X39.755 Y41.195 E50.28522
G1 X40.081 Y40.792 E50.30677
G1 X40.532 Y40.298 E50.33458
G0 F6000 X40.828 Y40.568
G1 F1200 X41.531 Y40 E50.37216
G1 X41.895 Y39.755 E50.3904
G1 X42.452 Y39.429 E50.41723
G1 X43.044 Y39.174 E50.44403
G1 X43.663 Y38.995 E50.47082
G1 X44.299 Y38.893 E50.4976
G1 X44.691 Y38.87 E50.51393
G1 X45.948 Y38.844 E50.5662
G1 X133.181 Y38.843 E54.19292
G1 X135.058 Y38.827 E54.27096
G1 X135.701 Y38.862 E54.29774
G1 X136.336 Y38.976 E54.32456
G1 X137.029 Y39.197 E54.3548
G1 X137.217 Y39.272 E54.36321
G1 X137.978 Y39.65 E54.39854
G1 X138.349 Y39.874 E54.41656
G1 X138.879 Y40.241 E54.44336
G1 X139.36 Y40.671 E54.47018
G1 X139.783 Y41.157 E54.49697
G1 X140.113 Y41.638 E54.52122
G1 X140.308 Y41.961 E54.53691
G1 X140.597 Y42.512 E54.56278
G1 X140.716 Y42.776 E54.57482
G1 X140.944 Y43.379 E54.60162
G1 X141.095 Y44.006 E54.62843
G1 X141.175 Y44.957 E54.66811
G1 X141.165 Y46.2 E54.71979
G1 X141.172 Y46.429 E54.72931
G1 X141.157 Y47.268 E54.7642
G1 X141.157 Y133.225 E58.33788
G1 X141.173 Y135.102 E58.41592
G1 X141.138 Y135.745 E58.44269
G1 X141.024 Y136.38 E58.46951
G1 X140.833 Y136.995 E58.49629
G1 X140.468 Y137.759 E58.53149
G1 X140.168 Y138.275 E58.5563
G1 X139.81 Y138.811 E58.5831
G1 X139.389 Y139.299 E58.6099
G1 X138.91 Y139.73 E58.63669
G1 X138.368 Y140.108 E58.66416
G1 X138.043 Y140.305 E58.67996
G1 X137.475 Y140.603 E58.70663
G1 X137.214 Y140.72 E58.71852
G1 X136.611 Y140.947 E58.7453
G1 X135.984 Y141.097 E58.77211
G1 X135.043 Y141.175 E58.81136
G1 X133.8 Y141.165 E58.86304
G1 X133.571 Y141.172 E58.87257
G1 X132.732 Y141.157 E58.90746
G1 X45.632 Y141.156 E62.52865
G1 X44.732 Y141.143 E62.56607
G1 X44.089 Y141.094 E62.59289
G1 X43.457 Y140.966 E62.61969
G1 X42.846 Y140.76 E62.6465
G1 X42.265 Y140.481 E62.6733
G1 X41.772 Y140.167 E62.6976
G1 X41.381 Y139.886 E62.71762
G1 X40.882 Y139.478 E62.74441
G1 X40.389 Y138.953 E62.77436
G1 X40.085 Y138.581 E62.79433
G1 X39.709 Y138.058 E62.82111
G1 X39.401 Y137.492 E62.8479
G1 X39.165 Y136.892 E62.87471
G1 X39.054 Y136.499 E62.89168
G1 X39 Y136.273 E62.90134
G1 X38.89 Y135.638 E62.92814
G1 X38.86 Y135.205 E62.94618
G1 X38.848 Y134.695 E62.96739
G1 X38.85 Y45.564 E66.67303
G1 X38.86 Y44.875 E66.70168
G1 X38.909 Y44.232 E66.72849
G1 X38.975 Y43.859 E66.74424
G1 X39.025 Y43.626 E66.75414
G1 X39.199 Y43.005 E66.78096
G1 X39.448 Y42.411 E66.80773
G1 X39.77 Y41.852 E66.83455
G1 X40.066 Y41.447 E66.85541
G1 X40.392 Y41.044 E66.87696
G1 X40.828 Y40.568 E66.9038
G1 F2400 E64.9038
;MESH:plate A v4 fix v1.stl
G0 F6000 X54.94 Y57.35
;TYPE:WALL-INNER
G1 F2400 E66.9038
G1 F1200 X54.435 Y57.282 E66.92498
G1 X54.267 Y57.23 E66.93229
G1 X53.943 Y57.097 E66.94685
G1 X53.827 Y57.04 E66.95223
G1 X53.712 Y56.964 E66.95796
G1 X53.433 Y56.749 E66.9726
G1 X53.339 Y56.666 E66.97782
G1 X53.251 Y56.567 E66.98332
G1 X53.036 Y56.288 E66.99797
G1 X52.963 Y56.179 E67.00342
G1 X52.903 Y56.057 E67.00907
G1 X52.77 Y55.733 E67.02363
G1 X52.71 Y55.526 E67.03259
G1 X52.657 Y55.132 E67.04912
G1 X52.649 Y55 E67.05462
G1 X52.657 Y54.868 E67.06012
G1 X52.704 Y54.515 E67.07492
G1 X52.73 Y54.388 E67.08031
G1 X52.77 Y54.267 E67.08561
G1 X52.903 Y53.943 E67.10017
G1 X52.963 Y53.821 E67.10583
G1 X53.036 Y53.712 E67.11128
G1 X53.251 Y53.433 E67.12592
G1 X53.337 Y53.336 E67.13131
G1 X53.433 Y53.251 E67.13664
G1 X53.712 Y53.036 E67.15129
G1 X53.821 Y52.963 E67.15674
G1 X53.943 Y52.903 E67.1624
G1 X54.267 Y52.77 E67.17696
G1 X54.387 Y52.73 E67.18222
G1 X54.514 Y52.704 E67.1876
G1 X54.867 Y52.657 E67.20241
G1 X55 Y52.649 E67.20795
G1 X55.133 Y52.657 E67.21349
G1 X55.486 Y52.704 E67.22829
G1 X55.613 Y52.73 E67.23368
G1 X55.733 Y52.77 E67.23894
G1 X56.057 Y52.903 E67.2535
G1 X56.179 Y52.963 E67.25916
G1 X56.288 Y53.036 E67.26461
G1 X56.567 Y53.251 E67.27925
G1 X56.666 Y53.339 E67.28476
G1 X56.749 Y53.433 E67.28998
G1 X56.964 Y53.712 E67.30462
G1 X57.04 Y53.827 E67.31035
G1 X57.097 Y53.943 E67.31572
G1 X57.23 Y54.267 E67.33028
G1 X57.282 Y54.436 E67.33764
G1 X57.35 Y54.94 E67.35878
G1 X57.349 Y55.073 E67.36431
G1 X57.296 Y55.486 E67.38162
G1 X57.261 Y55.646 E67.38843
G1 X57.097 Y56.057 E67.40683
G1 X57.05 Y56.156 E67.41138
G1 X56.964 Y56.288 E67.41793
G1 X56.704 Y56.621 E67.4355
G1 X56.567 Y56.749 E67.44329
G1 X56.288 Y56.964 E67.45794
G1 X56.154 Y57.051 E67.46458
G1 X55.733 Y57.23 E67.4836
G1 X55.607 Y57.272 E67.48912
G1 X55.486 Y57.296 E67.49425
G1 X55.073 Y57.349 E67.51156
G1 X54.94 Y57.35 E67.51709
G0 F6000 X55.905 Y56.727
G1 F1200 X55.563 Y56.867 E67.53245
G1 X55.471 Y56.893 E67.53643
G1 X55.044 Y56.95 E67.55434
G1 X54.964 Y56.95 E67.55767
G1 X54.52 Y56.891 E67.57629
G1 X54.419 Y56.86 E67.58068
G1 X54.025 Y56.693 E67.59847
G1 X53.677 Y56.432 E67.61656
G1 X53.568 Y56.323 E67.62296
G1 X53.309 Y55.978 E67.6409
G1 X53.14 Y55.581 E67.65884
G1 X53.104 Y55.457 E67.66421
G1 X53.049 Y55 E67.68334
G1 X53.054 Y54.92 E67.68668
G1 X53.116 Y54.491 E67.7047
G1 X53.273 Y54.095 E67.72241
G1 X53.309 Y54.022 E67.72579
G1 X53.568 Y53.677 E67.74373
G1 X53.677 Y53.568 E67.75014
G1 X54.022 Y53.309 E67.76807
G1 X54.095 Y53.273 E67.77146
G1 X54.491 Y53.116 E67.78917
G1 X54.92 Y53.054 E67.80719
G1 X55 Y53.049 E67.81052
G1 X55.08 Y53.054 E67.81385
G1 X55.509 Y53.116 E67.83187
G1 X55.905 Y53.273 E67.84958
G1 X55.978 Y53.309 E67.85297
G1 X56.323 Y53.568 E67.8709
G1 X56.432 Y53.677 E67.87731
G1 X56.693 Y54.025 E67.8954
G1 X56.878 Y54.47 E67.91543
G1 X56.891 Y54.52 E67.91758
G1 X56.95 Y54.964 E67.9362
G1 X56.95 Y55.044 E67.93953
G1 X56.894 Y55.467 E67.95727
G1 X56.86 Y55.581 E67.96221
G1 X56.727 Y55.905 E67.97678
G1 X56.668 Y56.015 E67.98197
G1 X56.385 Y56.377 E68.00107
G1 X56.022 Y56.663 E68.02028
G1 X55.905 Y56.727 E68.02583
G0 F6000 X55.022 Y56.651
;TYPE:WALL-OUTER
G1 F1200 X54.583 Y56.598 E68.04421
G1 X54.174 Y56.432 E68.06256
G1 X53.86 Y56.194 E68.07894
G1 X53.806 Y56.14 E68.08212
G1 X53.569 Y55.828 E68.09841
G1 X53.418 Y55.467 E68.11468
G1 X53.398 Y55.393 E68.11786
G1 X53.351 Y55.04 E68.13267
G1 X53.351 Y54.96 E68.13599
G1 X53.398 Y54.607 E68.1508
G1 X53.418 Y54.533 E68.15399
G1 X53.569 Y54.172 E68.17026
G1 X53.806 Y53.86 E68.18655
G1 X53.86 Y53.806 E68.18972
G1 X54.172 Y53.569 E68.20601
G1 X54.533 Y53.418 E68.22228
G1 X54.607 Y53.398 E68.22547
G1 X55 Y53.349 E68.24193
G1 X55.393 Y53.398 E68.2584
G1 X55.467 Y53.418 E68.26158
G1 X55.828 Y53.569 E68.27785
G1 X56.14 Y53.806 E68.29414
G1 X56.194 Y53.86 E68.29732
G1 X56.432 Y54.174 E68.3137
G1 X56.598 Y54.583 E68.33205
G1 X56.651 Y55.022 E68.35043
G1 X56.596 Y55.434 E68.36771
G1 X56.44 Y55.812 E68.38471
G1 X56.409 Y55.861 E68.38713
G1 X56.156 Y56.181 E68.40409
G1 X55.829 Y56.431 E68.4212
G1 X55.43 Y56.595 E68.43913
G1 X55.022 Y56.651 E68.45626
G1 F2400 E66.45626
G0 F6000 X56.392 Y95.166
;TYPE:WALL-INNER
G1 F2400 E68.45626
G1 F1200 X56.241 Y95.201 E68.4627
G1 X55.309 Y95.342 E68.50189
G1 X55.169 Y95.344 E68.50771
G1 X54.19 Y95.29 E68.54847
G1 X53.238 Y95.047 E68.58932
G1 X53.051 Y94.978 E68.59761
G1 X52.257 Y94.589 E68.63437
G1 X52.085 Y94.482 E68.64279
G1 X51.392 Y93.947 E68.67919
G1 X51.244 Y93.806 E68.68769
G1 X50.669 Y93.134 E68.72446
G1 X50.554 Y92.969 E68.73282
G1 X50.128 Y92.202 E68.7693
G1 X50.048 Y92.016 E68.77771
G1 X49.783 Y91.174 E68.81441
G1 X49.752 Y91.046 E68.81989
G1 X49.654 Y90.104 E68.85926
G1 X49.649 Y90.002 E68.86351
G1 X49.743 Y89.025 E68.90432
G1 X49.783 Y88.827 E68.91271
G1 X50.048 Y87.983 E68.94949
G1 X50.128 Y87.796 E68.95795
G1 X50.554 Y87.03 E68.99439
G1 X50.669 Y86.866 E69.00272
G1 X51.244 Y86.194 E69.03949
