;FLAVOR:Marlin
;TIME:6787
;Filament used: 4.96451m
;Layer height: 0.2
;MINX:33.6
;MINY:54.6
;MINZ:0.2
;MAXX:146.4
;MAXY:125.4
;MAXZ:8
;Generated with Cura_SteamEngine 5.2.2
M140 S60
M105
M190 S60
M104 S250
M105
M109 S250
M82 ;absolute extrusion mode
G28 ; home all axes
 M117 Purge extruder
 G92 E0 ; reset extruder
 G1 Z1.0 F3000 ; move z up little to prevent scratching of surface
 G1 X2 Y20 Z0.3 F5000.0 ; move to start-line position
 G1 X2 Y175.0 Z0.3 F1500.0 E15 ; draw 1st line
 G1 X2 Y175.0 Z0.4 F5000.0 ; move to side a little
 G1 X2 Y20 Z0.4 F1500.0 E30 ; draw 2nd line
 G92 E0 ; reset extruder
 G1 Z1.0 F3000 ; move z up little to prevent scratching of surface
G92 E0
G92 E0
G1 F2400 E-2
;LAYER_COUNT:40
;LAYER:0
M107
G0 F6000 X38.28 Y56.34 Z0.2
;TYPE:SKIRT
G1 F2400 E0
G1 F1200 X38.885 Y55.959 E0.02973
G1 X39.225 Y55.784 E0.04562
G1 X39.845 Y55.488 E0.07419
G1 X40.506 Y55.217 E0.10389
G1 X40.908 Y55.092 E0.12139
G1 X41.593 Y54.904 E0.15092
G1 X42.292 Y54.754 E0.18065
G1 X42.696 Y54.703 E0.19757
G1 X43.386 Y54.639 E0.22638
G1 X43.881 Y54.613 E0.24699
G1 X44.776 Y54.6 E0.28421
G1 X135.387 Y54.601 E4.05137
G1 X136.066 Y54.611 E4.07961
G1 X136.422 Y54.626 E4.09442
G1 X137.024 Y54.671 E4.11952
G1 X137.312 Y54.7 E4.13155
G1 X138.287 Y54.875 E4.17274
G1 X138.954 Y55.049 E4.2014
G1 X139.634 Y55.268 E4.2311
G1 X140.007 Y55.425 E4.24792
G1 X140.639 Y55.715 E4.27683
G1 X141.272 Y56.049 E4.30659
G1 X141.613 Y56.27 E4.32348
G1 X142.198 Y56.675 E4.35306
G1 X142.762 Y57.114 E4.38278
G1 X143.062 Y57.393 E4.39981
G1 X143.547 Y57.874 E4.42821
G1 X144.026 Y58.405 E4.45794
G1 X144.26 Y58.716 E4.47412
G1 X144.66 Y59.28 E4.50287
G1 X145.041 Y59.885 E4.53259
G1 X145.216 Y60.225 E4.54849
G1 X145.512 Y60.845 E4.57705
G1 X145.783 Y61.506 E4.60676
G1 X145.908 Y61.908 E4.62426
G1 X146.096 Y62.593 E4.65379
G1 X146.246 Y63.292 E4.68351
G1 X146.296 Y63.694 E4.70036
G1 X146.36 Y64.382 E4.72908
G1 X146.387 Y64.879 E4.74978
G1 X146.4 Y65.776 E4.78707
G1 X146.399 Y114.371 E6.80742
G1 X146.389 Y115.064 E6.83623
G1 X146.374 Y115.422 E6.85113
G1 X146.329 Y116.024 E6.87623
G1 X146.3 Y116.312 E6.88826
G1 X146.124 Y117.289 E6.92953
G1 X145.95 Y117.955 E6.95815
G1 X145.731 Y118.636 E6.98789
G1 X145.576 Y119.003 E7.00446
G1 X145.286 Y119.636 E7.0334
G1 X144.953 Y120.268 E7.0631
G1 X144.73 Y120.613 E7.08018
G1 X144.325 Y121.198 E7.10976
G1 X143.886 Y121.762 E7.13948
G1 X143.607 Y122.062 E7.15651
G1 X143.126 Y122.547 E7.18491
G1 X142.595 Y123.026 E7.21464
G1 X142.284 Y123.26 E7.23082
G1 X141.72 Y123.66 E7.25957
G1 X141.115 Y124.041 E7.28929
G1 X140.772 Y124.217 E7.30532
G1 X140.151 Y124.513 E7.33392
G1 X139.489 Y124.784 E7.36366
G1 X139.093 Y124.907 E7.3809
G1 X138.409 Y125.095 E7.41039
G1 X137.71 Y125.246 E7.44013
G1 X137.304 Y125.297 E7.45714
G1 X136.614 Y125.361 E7.48595
G1 X136.119 Y125.387 E7.50656
G1 X135.224 Y125.4 E7.54377
G1 X113.154 Y125.4 E8.46133
G1 X111.457 Y125.386 E8.53189
G1 X68.345 Y125.386 E10.32428
G1 X66.788 Y125.4 E10.38901
G1 X44.613 Y125.399 E11.31094
G1 X43.934 Y125.389 E11.33918
G1 X43.578 Y125.374 E11.35399
G1 X42.976 Y125.329 E11.37909
G1 X42.688 Y125.3 E11.39112
G1 X41.713 Y125.125 E11.43231
G1 X41.046 Y124.951 E11.46096
G1 X40.366 Y124.732 E11.49066
G1 X39.993 Y124.575 E11.50749
G1 X39.361 Y124.285 E11.5364
G1 X38.728 Y123.951 E11.56616
G1 X38.387 Y123.73 E11.58305
G1 X37.802 Y123.325 E11.61263
G1 X37.238 Y122.886 E11.64235
G1 X36.938 Y122.607 E11.65938
G1 X36.453 Y122.126 E11.68778
G1 X35.974 Y121.595 E11.71751
G1 X35.74 Y121.284 E11.73369
G1 X35.34 Y120.72 E11.76244
G1 X34.959 Y120.115 E11.79216
G1 X34.781 Y119.768 E11.80838
G1 X34.485 Y119.146 E11.83701
G1 X34.214 Y118.484 E11.86675
G1 X34.095 Y118.098 E11.88355
G1 X33.906 Y117.413 E11.91309
G1 X33.754 Y116.714 E11.94283
G1 X33.701 Y116.29 E11.9606
G1 X33.638 Y115.597 E11.98953
G1 X33.613 Y115.115 E12.00959
G1 X33.6 Y114.224 E12.04664
G1 X33.601 Y65.578 E14.06911
G1 X33.611 Y64.929 E14.09609
G1 X33.626 Y64.578 E14.1107
G1 X33.671 Y63.976 E14.13579
G1 X33.7 Y63.688 E14.14783
G1 X33.876 Y62.711 E14.1891
G1 X34.05 Y62.045 E14.21772
G1 X34.269 Y61.364 E14.24746
G1 X34.424 Y60.997 E14.26402
G1 X34.714 Y60.364 E14.29297
G1 X35.047 Y59.732 E14.32267
G1 X35.27 Y59.387 E14.33975
G1 X35.675 Y58.802 E14.36933
G1 X36.114 Y58.238 E14.39905
G1 X36.393 Y57.938 E14.41608
G1 X36.874 Y57.453 E14.44448
G1 X37.405 Y56.974 E14.47421
G1 X37.716 Y56.74 E14.49039
G1 X38.28 Y56.34 E14.51914
G0 F6000 X38.511 Y56.666
G1 F1200 X39.397 Y56.145 E14.56187
G1 X40.017 Y55.849 E14.59043
G1 X40.658 Y55.588 E14.61921
G1 X41.014 Y55.478 E14.6347
G1 X41.699 Y55.29 E14.66423
G1 X42.376 Y55.146 E14.69301
G1 X42.733 Y55.102 E14.70796
G1 X43.423 Y55.038 E14.73677
G1 X43.887 Y55.013 E14.75609
G1 X44.776 Y55 E14.79305
G1 X135.381 Y55.001 E18.55997
G1 X136.06 Y55.011 E18.5882
G1 X136.394 Y55.025 E18.6021
G1 X136.984 Y55.069 E18.6267
G1 X137.272 Y55.098 E18.63873
G1 X138.186 Y55.262 E18.67734
G1 X138.853 Y55.436 E18.706
G1 X139.511 Y55.649 E18.73475
G1 X139.84 Y55.789 E18.74962
G1 X140.472 Y56.079 E18.77853
G1 X141.084 Y56.403 E18.80732
G1 X141.385 Y56.599 E18.82225
G1 X141.97 Y57.004 E18.85183
G1 X142.516 Y57.43 E18.88062
G1 X142.78 Y57.677 E18.89566
G1 X143.265 Y58.158 E18.92405
G1 X143.934 Y58.947 E18.96706
G1 X144.334 Y59.511 E18.99581
G1 X144.855 Y60.397 E19.03854
G1 X145.151 Y61.017 E19.0671
G1 X145.412 Y61.658 E19.09588
G1 X145.522 Y62.014 E19.11137
G1 X145.71 Y62.699 E19.1409
G1 X145.854 Y63.376 E19.16968
G1 X145.898 Y63.731 E19.18455
G1 X145.962 Y64.419 E19.21328
G1 X145.987 Y64.885 E19.23268
G1 X146 Y65.776 E19.26973
G1 X145.999 Y114.366 E21.28986
G1 X145.989 Y115.059 E21.31868
G1 X145.975 Y115.394 E21.33262
G1 X145.931 Y115.984 E21.35722
G1 X145.902 Y116.272 E21.36925
G1 X145.737 Y117.188 E21.40795
G1 X145.563 Y117.854 E21.43656
G1 X145.35 Y118.512 E21.46532
G1 X145.213 Y118.836 E21.47994
G1 X144.923 Y119.469 E21.50889
G1 X144.598 Y120.081 E21.5377
G1 X144.401 Y120.385 E21.55276
G1 X143.996 Y120.97 E21.58234
G1 X143.57 Y121.516 E21.61113
G1 X143.323 Y121.78 E21.62616
G1 X142.842 Y122.265 E21.65456
G1 X142.053 Y122.934 E21.69757
G1 X141.489 Y123.334 E21.72632
G1 X140.6 Y123.856 E21.76918
G1 X139.979 Y124.152 E21.79778
G1 X139.337 Y124.414 E21.82661
G1 X138.987 Y124.521 E21.84182
G1 X138.303 Y124.709 E21.87132
G1 X137.626 Y124.854 E21.9001
G1 X137.267 Y124.898 E21.91514
G1 X136.577 Y124.962 E21.94395
G1 X136.113 Y124.987 E21.96327
G1 X135.224 Y125 E22.00023
G1 X113.158 Y125 E22.91763
G1 X111.461 Y124.986 E22.98818
G1 X68.341 Y124.986 E24.78091
G1 X66.784 Y125 E24.84564
G1 X44.619 Y124.999 E25.76715
G1 X43.94 Y124.989 E25.79539
G1 X43.606 Y124.975 E25.80929
G1 X43.016 Y124.931 E25.83388
G1 X42.728 Y124.902 E25.84592
G1 X41.814 Y124.738 E25.88452
G1 X41.147 Y124.564 E25.91318
G1 X40.489 Y124.351 E25.94194
G1 X40.16 Y124.211 E25.9568
G1 X39.528 Y123.921 E25.98571
G1 X38.916 Y123.597 E26.0145
G1 X38.615 Y123.401 E26.02943
G1 X38.03 Y122.996 E26.05902
G1 X37.484 Y122.57 E26.08781
G1 X37.22 Y122.323 E26.10284
G1 X36.735 Y121.842 E26.13124
G1 X36.066 Y121.053 E26.17424
G1 X35.666 Y120.489 E26.20299
G1 X35.142 Y119.596 E26.24604
G1 X34.846 Y118.974 E26.27468
G1 X34.585 Y118.333 E26.30345
G1 X34.48 Y117.992 E26.31828
G1 X34.291 Y117.307 E26.34783
G1 X34.146 Y116.63 E26.37661
G1 X34.1 Y116.254 E26.39236
G1 X34.037 Y115.561 E26.42129
G1 X34.013 Y115.109 E26.44011
G1 X34 Y114.224 E26.47691
G1 X34.001 Y65.585 E28.49908
G1 X34.011 Y64.936 E28.52607
G1 X34.025 Y64.606 E28.5398
G1 X34.069 Y64.016 E28.5644
G1 X34.098 Y63.728 E28.57643
G1 X34.263 Y62.812 E28.61513
G1 X34.437 Y62.146 E28.64375
G1 X34.65 Y61.488 E28.6725
G1 X34.787 Y61.164 E28.68712
G1 X35.077 Y60.531 E28.71607
G1 X35.402 Y59.919 E28.74488
G1 X35.599 Y59.615 E28.75994
G1 X36.004 Y59.03 E28.78952
G1 X36.43 Y58.484 E28.81832
G1 X36.677 Y58.22 E28.83335
G1 X37.158 Y57.735 E28.86174
G1 X37.947 Y57.066 E28.90475
G1 X38.511 Y56.666 E28.9335
G0 F6000 X38.742 Y56.992
G1 F1200 X39.569 Y56.506 E28.97338
G1 X40.189 Y56.21 E29.00194
G1 X41.12 Y55.864 E29.04324
G1 X41.805 Y55.676 E29.07277
G1 X42.77 Y55.5 E29.11355
G1 X43.46 Y55.436 E29.14236
G1 X43.893 Y55.413 E29.16039
G1 X44.776 Y55.4 E29.1971
G1 X135.375 Y55.401 E32.96377
G1 X136.054 Y55.411 E32.992
G1 X136.366 Y55.424 E33.00499
G1 X136.944 Y55.467 E33.02908
G1 X137.232 Y55.496 E33.04112
G1 X138.085 Y55.649 E33.07715
G1 X138.752 Y55.823 E33.10581
G1 X139.673 Y56.152 E33.14647
G1 X140.305 Y56.442 E33.17538
G1 X141.158 Y56.928 E33.21619
G1 X141.743 Y57.333 E33.24577
G1 X142.498 Y57.961 E33.2866
G1 X142.983 Y58.442 E33.315
G1 X143.608 Y59.178 E33.35514
G1 X144.008 Y59.742 E33.38389
G1 X144.494 Y60.569 E33.42377
G1 X144.79 Y61.189 E33.45233
G1 X145.136 Y62.12 E33.49363
G1 X145.324 Y62.805 E33.52316
G1 X145.5 Y63.768 E33.56386
G1 X145.564 Y64.456 E33.59259
G1 X145.587 Y64.891 E33.6107
G1 X145.6 Y65.776 E33.6475
G1 X145.599 Y114.36 E35.66738
G1 X145.589 Y115.053 E35.6962
G1 X145.576 Y115.366 E35.70922
G1 X145.533 Y115.944 E35.73332
G1 X145.504 Y116.232 E35.74535
G1 X145.35 Y117.087 E35.78147
G1 X145.176 Y117.753 E35.81009
G1 X144.849 Y118.669 E35.85053
G1 X144.559 Y119.302 E35.87947
G1 X144.072 Y120.158 E35.92042
G1 X143.667 Y120.743 E35.95
G1 X143.039 Y121.498 E35.99083
G1 X142.558 Y121.983 E36.01923
G1 X141.822 Y122.608 E36.05937
G1 X141.258 Y123.008 E36.08812
G1 X140.428 Y123.495 E36.12813
G1 X139.807 Y123.791 E36.15673
G1 X138.881 Y124.136 E36.19781
G1 X138.197 Y124.324 E36.2273
G1 X137.23 Y124.5 E36.26817
G1 X136.54 Y124.564 E36.29698
G1 X136.107 Y124.587 E36.31501
G1 X135.224 Y124.6 E36.35172
G1 X113.161 Y124.6 E37.26899
G1 X111.464 Y124.586 E37.33955
G1 X68.337 Y124.586 E39.13256
G1 X66.78 Y124.6 E39.1973
G1 X44.625 Y124.599 E40.11839
G1 X43.946 Y124.589 E40.14663
G1 X43.634 Y124.576 E40.15961
G1 X43.056 Y124.533 E40.18371
G1 X42.768 Y124.504 E40.19574
G1 X41.915 Y124.351 E40.23177
G1 X41.248 Y124.177 E40.26043
G1 X40.327 Y123.848 E40.30109
G1 X39.695 Y123.558 E40.33
G1 X38.842 Y123.072 E40.37081
G1 X38.257 Y122.667 E40.4004
G1 X37.502 Y122.039 E40.44122
G1 X37.017 Y121.558 E40.46962
G1 X36.392 Y120.822 E40.50977
G1 X35.992 Y120.258 E40.53851
G1 X35.503 Y119.424 E40.57871
G1 X35.207 Y118.802 E40.60735
G1 X34.866 Y117.885 E40.64802
G1 X34.677 Y117.2 E40.67757
G1 X34.498 Y116.218 E40.71906
G1 X34.435 Y115.525 E40.748
G1 X34.413 Y115.103 E40.76556
G1 X34.4 Y114.224 E40.80211
G1 X34.401 Y65.591 E42.82404
G1 X34.411 Y64.942 E42.85102
G1 X34.424 Y64.634 E42.86384
G1 X34.467 Y64.056 E42.88794
G1 X34.496 Y63.768 E42.89997
G1 X34.65 Y62.913 E42.93609
G1 X34.824 Y62.247 E42.96471
G1 X35.151 Y61.331 E43.00514
G1 X35.441 Y60.698 E43.03409
G1 X35.928 Y59.842 E43.07504
G1 X36.333 Y59.257 E43.10462
G1 X36.961 Y58.502 E43.14545
G1 X37.442 Y58.017 E43.17385
G1 X38.178 Y57.392 E43.21399
G1 X38.742 Y56.992 E43.24274
G0 F6000 X38.974 Y57.318
G1 F1200 X39.742 Y56.867 E43.27976
G1 X40.362 Y56.571 E43.30833
G1 X41.226 Y56.249 E43.34666
G1 X41.911 Y56.061 E43.37619
G1 X42.807 Y55.898 E43.41406
G1 X43.497 Y55.834 E43.44287
G1 X43.899 Y55.813 E43.4596
G1 X44.776 Y55.8 E43.49607
G1 X135.37 Y55.801 E47.26253
G1 X136.049 Y55.811 E47.29076
G1 X136.338 Y55.823 E47.30279
G1 X136.904 Y55.865 E47.32638
G1 X137.192 Y55.894 E47.33842
G1 X137.984 Y56.036 E47.37187
G1 X138.651 Y56.21 E47.40053
G1 X139.507 Y56.516 E47.43832
G1 X140.139 Y56.806 E47.46723
G1 X140.93 Y57.257 E47.50509
G1 X141.515 Y57.662 E47.53467
G1 X142.217 Y58.245 E47.57261
G1 X142.702 Y58.726 E47.60101
G1 X143.282 Y59.41 E47.63829
G1 X143.682 Y59.974 E47.66704
G1 X144.133 Y60.742 E47.70407
G1 X144.429 Y61.362 E47.73263
G1 X144.751 Y62.226 E47.77096
G1 X144.939 Y62.911 E47.8005
G1 X145.102 Y63.805 E47.83828
G1 X145.166 Y64.493 E47.867
G1 X145.187 Y64.897 E47.88382
G1 X145.2 Y65.776 E47.92037
G1 X145.199 Y114.354 E49.94001
G1 X145.189 Y115.047 E49.96883
G1 X145.177 Y115.338 E49.98093
G1 X145.135 Y115.904 E50.00453
G1 X145.106 Y116.192 E50.01656
G1 X144.963 Y116.985 E50.05007
G1 X144.789 Y117.651 E50.07868
G1 X144.485 Y118.503 E50.11629
G1 X144.195 Y119.136 E50.14524
G1 X143.743 Y119.93 E50.18323
G1 X143.338 Y120.515 E50.21281
G1 X142.755 Y121.217 E50.25075
G1 X142.274 Y121.702 E50.27914
G1 X141.59 Y122.282 E50.31643
G1 X141.026 Y122.682 E50.34518
G1 X140.255 Y123.134 E50.38233
G1 X139.634 Y123.43 E50.41093
G1 X138.775 Y123.75 E50.44904
G1 X138.091 Y123.938 E50.47854
G1 X137.193 Y124.102 E50.51649
G1 X136.503 Y124.166 E50.5453
G1 X136.101 Y124.187 E50.56203
G1 X135.224 Y124.2 E50.5985
G1 X113.164 Y124.2 E51.51565
G1 X111.467 Y124.186 E51.5862
G1 X68.334 Y124.186 E53.37946
G1 X66.777 Y124.2 E53.4442
G1 X44.63 Y124.199 E54.36497
G1 X43.951 Y124.189 E54.3932
G1 X43.662 Y124.177 E54.40522
G1 X43.096 Y124.135 E54.42882
G1 X42.808 Y124.106 E54.44085
G1 X42.016 Y123.964 E54.47431
G1 X41.349 Y123.79 E54.50297
G1 X40.493 Y123.484 E54.54076
G1 X39.861 Y123.194 E54.56967
G1 X39.07 Y122.743 E54.60752
G1 X38.485 Y122.338 E54.63711
G1 X37.783 Y121.755 E54.67504
G1 X37.298 Y121.274 E54.70344
G1 X36.718 Y120.59 E54.74073
G1 X36.318 Y120.026 E54.76947
G1 X35.865 Y119.252 E54.80676
G1 X35.569 Y118.63 E54.8354
G1 X35.251 Y117.779 E54.87317
G1 X35.062 Y117.094 E54.90271
G1 X34.896 Y116.182 E54.94125
G1 X34.833 Y115.489 E54.97018
G1 X34.813 Y115.097 E54.9865
G1 X34.8 Y114.224 E55.0228
G1 X34.801 Y65.597 E57.04448
G1 X34.811 Y64.948 E57.07146
G1 X34.823 Y64.662 E57.08336
G1 X34.865 Y64.096 E57.10696
G1 X34.894 Y63.808 E57.11899
G1 X35.037 Y63.015 E57.15249
G1 X35.211 Y62.349 E57.18111
G1 X35.515 Y61.497 E57.21872
G1 X35.805 Y60.864 E57.24767
G1 X36.257 Y60.07 E57.28565
G1 X36.662 Y59.485 E57.31523
G1 X37.245 Y58.783 E57.35317
G1 X37.726 Y58.298 E57.38157
G1 X38.41 Y57.718 E57.41886
G1 X38.974 Y57.318 E57.4476
G1 F2400 E55.4476
G0 F6000 X39.336 Y115.028
G0 X39.404 Y115.81
G0 X39.614 Y116.596
G0 X39.959 Y117.334
G0 X40.425 Y117.999
G0 X41.001 Y118.575
G0 X41.666 Y119.041
G0 X42.404 Y119.386
G0 X43.19 Y119.596
G0 X43.972 Y119.664
G0 X68.128 Y119.653
G0 X69.103 Y116.214
G1 F2400 E57.4476
G1 F1200 X110.899 Y116.213 E59.18528
G1 X110.693 Y116.292 E59.19445
G1 X110.337 Y116.513 E59.21187
G1 X110.042 Y116.786 E59.22858
G1 X69.958 Y116.786 E60.89508
G1 X69.674 Y116.521 E60.91123
G1 X69.319 Y116.298 E60.92866
G1 X69.103 Y116.214 E60.9383
G0 F6000 X68.939 Y116.569
G1 F1200 X68.472 Y116.469 E60.95815
G1 X67.129 Y116.363 E61.01416
G1 X66.759 Y116.274 E61.02998
G1 X66.414 Y116.132 E61.04549
G1 X66.093 Y115.935 E61.06115
G1 X65.951 Y115.814 E61.06891
G1 X112.223 Y115.813 E62.99267
G1 X112.6 Y115.773 E63.00844
G1 X112.96 Y115.655 E63.02419
G1 X113.287 Y115.465 E63.03991
G1 X113.496 Y115.286 E63.05135
G1 X113.778 Y115.004 E63.06793
G1 X114.016 Y114.709 E63.08369
G1 X114.187 Y114.371 E63.09944
G1 X114.284 Y114.005 E63.11518
G1 X114.305 Y113.731 E63.1266
G1 X114.314 Y69.277 E64.97479
G1 X114.274 Y68.901 E64.99051
G1 X114.156 Y68.54 E65.0063
G1 X113.966 Y68.213 E65.02202
G1 X113.787 Y68.004 E65.03346
G1 X113.505 Y67.722 E65.05004
G1 X113.21 Y67.484 E65.0658
G1 X112.872 Y67.313 E65.08155
G1 X112.506 Y67.216 E65.09729
G1 X112.232 Y67.195 E65.10872
G1 X65.951 Y67.186 E67.03286
G1 X66.093 Y67.065 E67.04061
G1 X66.414 Y66.868 E67.05627
G1 X66.759 Y66.726 E67.07178
G1 X67.129 Y66.637 E67.0876
G1 X67.58 Y66.601 E67.10641
G1 X112.407 Y66.6 E68.9701
G1 X112.871 Y66.637 E68.98946
G1 X113.241 Y66.726 E69.00528
G1 X113.586 Y66.868 E69.02079
G1 X113.907 Y67.065 E69.03645
G1 X114.192 Y67.308 E69.05202
G1 X114.435 Y67.593 E69.06759
G1 X114.632 Y67.914 E69.08325
G1 X114.774 Y68.259 E69.09876
G1 X114.863 Y68.629 E69.11458
G1 X114.899 Y69.08 E69.13339
G1 X114.9 Y113.907 E70.99708
